images/icons/logo-favicon.svg

<svg width="43" height="39" viewBox="0 0 43 39" fill="none" xmlns="http://www.w3.org/2000/svg">
<path d="M20.2168 0.0584384C-1.34498 0.436738 -8.25318 31.6029 12.3726 38.8582C12.6693 38.9779 12.9906 39.0241 13.309 38.9927C13.6274 38.9612 13.9334 38.8533 14.201 38.6779C14.4686 38.5025 14.6898 38.265 14.8457 37.9856C15.0015 37.7062 15.0874 37.3932 15.0961 37.0734V19.8769C14.9661 16.6828 5.08609 20.9326 5.34609 21.1354C5.07743 20.6456 4.87917 20.1204 4.75718 19.5753C11.174 15.4504 15.9112 17.2172 15.9112 17.2172C14.0769 16.367 10.2211 15.6572 4.74163 18.5653C4.86107 16.2216 5.63821 13.959 6.9841 12.0366C9.2113 10.8968 11.6954 10.3525 14.1952 10.4564C16.695 10.5602 19.1253 11.3089 21.2503 12.6295C23.3752 11.3158 25.8021 10.5703 28.298 10.4647C30.794 10.3591 33.2752 10.8968 35.5035 12.0262C36.8006 13.9615 37.5852 16.1945 37.7837 18.5158C31.064 15.4322 27.9375 16.5126 26.1006 17.3641C26.1006 17.3641 31.1706 15.6104 37.6641 19.5741C37.5683 20.1308 37.3858 20.669 37.1233 21.1692C35.8714 20.0811 27.5462 17.0521 27.346 19.8861V37.0876C27.3547 37.4067 27.4402 37.719 27.5955 37.9979C27.7508 38.2768 27.9711 38.514 28.2378 38.6894C28.5045 38.8648 28.8095 38.9732 29.1271 39.0053C29.4447 39.0374 29.7653 38.9923 30.0617 38.8739C51.6495 31.1077 42.9408 -1.56136 20.2168 0.0584384Z" fill="white"/>
<path d="M20.9651 20.3762C22.0688 19.1048 21.8114 27.7927 21.9232 28.5844C21.8179 29.3709 22.0623 38.0965 20.9651 36.8056C20.3567 31.346 20.3567 25.8358 20.9651 20.3762V20.3762Z" fill="#FF4C45"/>
<path d="M17.8463 23.1816C18.7446 22.0922 18.4639 28.0072 18.5653 28.5766C18.46 29.1733 18.7537 35.0337 17.8463 33.9833C17.4666 30.3928 17.4666 26.7722 17.8463 23.1816V23.1816Z" fill="#FF4C45"/>
<path d="M24.1461 23.1647C25.0288 22.0857 24.7805 28.0033 24.891 28.5779C24.7779 29.1798 25.0366 35.0324 24.1461 33.9911C23.7775 30.3917 23.7775 26.7641 24.1461 23.1647Z" fill="#FF4C45"/>
</svg>

<svg width="43" height="39" fill="none" xmlns="http://www.w3.org/2000/svg"><path d="M20.217.058c-21.562.379-28.47 31.545-7.844 38.8a1.983 1.983 0 0 0 2.723-1.785V19.877c-.13-3.194-10.01 1.056-9.75 1.258a5.943 5.943 0 0 1-.589-1.56c6.417-4.125 11.154-2.358 11.154-2.358-1.834-.85-5.69-1.56-11.17 1.348.12-2.343.897-4.606 2.243-6.528a14.506 14.506 0 0 1 14.266.592 14.574 14.574 0 0 1 14.254-.603 13.763 13.763 0 0 1 2.28 6.49c-6.72-3.084-9.846-2.003-11.683-1.152 0 0 5.07-1.754 11.563 2.21a5.405 5.405 0 0 1-.54 1.595c-1.253-1.088-9.578-4.117-9.778-1.283v17.202a1.982 1.982 0 0 0 2.716 1.786C51.65 31.108 42.94-1.561 20.217.058Z" fill="#fff"/><path d="M20.965 20.376c1.104-1.271.846 7.417.958 8.208-.105.787.14 9.512-.958 8.222a74.172 74.172 0 0 1 0-16.43ZM17.846 23.182c.899-1.09.618 4.825.72 5.395-.106.596.188 6.457-.72 5.406-.38-3.59-.38-7.21 0-10.801ZM24.146 23.165c.883-1.08.634 4.838.745 5.413-.113.602.146 6.454-.745 5.413a53.136 53.136 0 0 1 0-10.826Z" fill="#FF4C45"/></svg>
